packages/icons/raw/imported/ControlsExpandAlt.svg

<svg width="32" height="32" viewBox="0 0 32 32" fill="none" xmlns="http://www.w3.org/2000/svg">
<path d="M20 19.9927L6.5 6.50005M6.5 6.50005V14.7288M6.5 6.50005L14.7288 6.5" stroke="black" stroke-linecap="round" stroke-linejoin="round"/>
<path d="M6.5 19.5V23.5C6.5 24.6046 7.39543 25.5 8.5 25.5H23.5C24.6046 25.5 25.5 24.6046 25.5 23.5V8.5C25.5 7.39543 24.6046 6.5 23.5 6.5H19.5" stroke="black" stroke-linecap="round" stroke-linejoin="round"/>
</svg>

<svg width="32" height="32" fill="none" xmlns="http://www.w3.org/2000/svg"><path d="M20 19.993 6.5 6.5m0 0v8.229m0-8.229h8.229M6.5 19.5v4a2 2 0 0 0 2 2h15a2 2 0 0 0 2-2v-15a2 2 0 0 0-2-2h-4" stroke="#000" stroke-linecap="round" stroke-linejoin="round"/></svg>
